src/icons/svg/clean.svg

<?xml version="1.0" encoding="UTF-8"?>
<svg width="40px" height="47px" viewBox="0 0 40 47" version="1.1" xmlns="http://www.w3.org/2000/svg"
>
    <path d="M32.0665083,16.5795724 L26.6033254,16.5795724 L26.6033254,6.60332542 C26.6033254,2.94536817 23.6579572,0 20,0 C16.3420428,0 13.3966746,2.94536817 13.3966746,6.60332542 L13.3966746,16.5795724 L7.93349169,16.5795724 C3.56294537,16.5795724 0,20.1425178 0,24.5130641 L0,27.2684086 C0,29.7387173 2.04275534,31.7814727 4.51306413,31.7814727 L4.70308789,31.7814727 L2.32779097,37.4346793 C1.47268409,39.4299287 1.71021378,41.7102138 2.89786223,43.5629454 C4.08551069,45.368171 6.12826603,46.4608076 8.31353919,46.4608076 L31.5914489,46.4608076 C33.824228,46.4608076 35.8669834,45.368171 37.0546318,43.4679335 C38.2422803,41.6152019 38.432304,39.2874109 37.4821853,37.2921615 L34.9168646,31.7814727 L35.4869359,31.7814727 C37.9572447,31.7814727 40,29.7387173 40,27.2684086 L40,24.5130641 C40,20.0950119 36.4370546,16.5795724 32.0665083,16.5795724 L32.0665083,16.5795724 Z M17.1971496,6.60332542 C17.1971496,5.08313539 18.432304,3.80047506 20,3.80047506 C21.52019,3.80047506 22.8028504,5.03562945 22.8028504,6.60332542 L22.8028504,16.5795724 L17.1971496,16.5795724 L17.1971496,6.60332542 Z M33.7767221,41.4251781 C33.2541568,42.1852732 32.4465558,42.6603325 31.4964371,42.6603325 L8.21852732,42.6603325 C7.31591449,42.6603325 6.50831354,42.2327791 5.98574822,41.4726841 C5.4631829,40.7125891 5.41567696,39.8099762 5.74821853,38.9548694 L8.6935867,31.9714964 L9.26365796,31.9714964 L9.26365796,37.7672209 C9.26365796,38.8123515 10.1187648,39.6674584 11.1638955,39.6674584 C12.2090261,39.6674584 13.064133,38.8123515 13.064133,37.7672209 L13.064133,32.0665083 L13.064133,31.9714964 L14.9643705,31.9714964 L14.9643705,37.7672209 C14.9643705,38.8123515 15.8194774,39.6674584 16.8646081,39.6674584 C17.9097387,39.6674584 18.7648456,38.8123515 18.7648456,37.7672209 L18.7648456,32.0665083 L18.7648456,31.9239905 L20.6650831,31.9239905 L20.6650831,37.7672209 C20.6650831,38.8123515 21.52019,39.6674584 22.5653207,39.6674584 C23.6104513,39.6674584 24.4655582,38.8123515 24.4655582,37.7672209 L24.4655582,32.0665083 L24.4655582,31.8764846 L26.3657957,31.8764846 L26.3657957,37.7672209 C26.3657957,38.8123515 27.2209026,39.6674584 28.2660333,39.6674584 C29.3111639,39.6674584 30.1662708,38.8123515 30.1662708,37.7672209 L30.1662708,32.0665083 L30.1662708,31.8289786 L30.8313539,31.8289786 L34.0617577,38.9073634 C34.3467933,39.6674584 34.2992874,40.6175772 33.7767221,41.4251781 Z M36.1995249,27.2209026 C36.1995249,27.6009501 35.8669834,27.9334917 35.4869359,27.9334917 L4.51306413,27.9334917 C4.13301663,27.9334917 3.80047506,27.6009501 3.80047506,27.2209026 L3.80047506,24.4655582 C3.80047506,22.1852732 5.65320665,20.3325416 7.93349169,20.3325416 L32.0665083,20.3325416 C34.3467933,20.3325416 36.1995249,22.1852732 36.1995249,24.4655582 L36.1995249,27.2209026 Z"
          id="形状"></path>
</svg>

<svg width="40" height="47" xmlns="http://www.w3.org/2000/svg"><path d="M32.067 16.58h-5.464V6.603A6.59 6.59 0 0 0 20 0a6.59 6.59 0 0 0-6.603 6.603v9.977H7.933C3.563 16.58 0 20.143 0 24.513v2.755c0 2.47 2.043 4.513 4.513 4.513h.19l-2.375 5.654c-.855 1.995-.618 4.275.57 6.128a6.484 6.484 0 0 0 5.416 2.898H31.59c2.233 0 4.276-1.093 5.464-2.993 1.187-1.853 1.377-4.18.427-6.176l-2.565-5.51h.57c2.47 0 4.513-2.043 4.513-4.514v-2.755a7.917 7.917 0 0 0-7.933-7.933zm-14.87-9.977A2.808 2.808 0 0 1 20 3.8a2.808 2.808 0 0 1 2.803 2.803v9.977h-5.606V6.603zm16.58 34.822c-.523.76-1.33 1.235-2.28 1.235H8.218c-.903 0-1.71-.427-2.233-1.187-.523-.76-.57-1.663-.238-2.518l2.946-6.984h.57v5.796c0 1.045.855 1.9 1.9 1.9s1.9-.855 1.9-1.9v-5.796h1.9v5.796c0 1.045.855 1.9 1.9 1.9 1.046 0 1.9-.855 1.9-1.9v-5.843h1.901v5.843c0 1.045.855 1.9 1.9 1.9s1.9-.855 1.9-1.9V31.877h1.9v5.89c0 1.045.856 1.9 1.901 1.9s1.9-.855 1.9-1.9V31.83h.665l3.23 7.078a2.83 2.83 0 0 1-.284 2.518zM36.2 27.221a.73.73 0 0 1-.713.712H4.513a.73.73 0 0 1-.713-.712v-2.755a4.136 4.136 0 0 1 4.133-4.133h24.134a4.136 4.136 0 0 1 4.133 4.133v2.755z"/></svg>
